!!!id: EG073
!!!page: 120-122
!!!COM: Anonymous
!!!LYR: Anonymous
!!!PTL@@FR: Chansons Populaires du Canada
!!!OTL@@FR: Mariann' s'en va-t-au moulin
!!!PUB: G. E. Desbarats
!!!YEM:
!!!PDT: 1865
!!!SMA:
!!!OMD:
!!!AGN-Laforte:
!!!AGN-type:
!!!AGN-rime:
**kern
*clefG2
*k[f#]
*G:
*M3/8
*
*
8d
=1
4g
8g
=2
4g
8a
=3
4b/
8b/
=4
4g
8b/
!!LO:PB:g=original
=5
4dd
8dd
=6
4cc
8cc
=7
4dd
8cc
=8
4b
8d
=9
4g
8g
=10
4g
8a
!!LO:PB:g=original
=11
4b/
8b/
=12
4g
8b/
=13
4dd
8dd
=14
4cc
8cc
=15
4dd
8cc
=16
[4.b
!!LO:PB:g=original
=17
8b]
8r
8b
=18
4b
8b
=19
8b
8b
=20
4.dd
=21
4cc
8b/
=22
4a
8a
!!LO:PB:g=original
=23
4a
8a
=24
4.cc
=25
4b
8a
=26
4g
8g
=27
4d
8g
=28
8b/
8b/
8b/
!!LO:PB:g=original
=29
4.g
=30
4.dd
=31
4cc
8b/
=32
4a
8f#
=33
4g
8r
=34
8r
==||
8r
==||
*
*
==|
!!!RNB: First beat of m.32 contains a beamed pair of eighth grace notes in lower voice from 'a' to 'g'
!!!RNB: Penultimate eighth rest flipped backward in original
*-
